X:1
T:Hr r gille
R:Gnglt
O:Skne
M:2/4
L:1/8
K:D
|: F>E DD | F>E DD | EE AA1/2G1/2 | FE D2 :| |: A2 d>B | AA d2 | A>G FF | EE1/2E1/2 F2 :|
